app/images/hardware-wallet-step-3.svg

<svg height="85" viewBox="0 0 108 85" width="108" xmlns="http://www.w3.org/2000/svg"><g fill="none" fill-rule="evenodd" transform="translate(1 1)"><path d="m96.2021481 83h-86.40429618c-2.09704723 0-3.79785192-1.7077879-3.79785192-3.8148649v-70.37027017c0-2.10707706 1.70080469-3.81486493 3.79785192-3.81486493h86.40429618c2.0976802 0 3.7978519 1.70778787 3.7978519 3.81486493v70.37027017c0 2.107077-1.7001717 3.8148649-3.7978519 3.8148649" fill="#fefefe"/><path d="m96.2021481 83h-86.40429618c-2.09704723 0-3.79785192-1.7077879-3.79785192-3.8148649v-70.37027017c0-2.10707706 1.70080469-3.81486493 3.79785192-3.81486493h86.40429618c2.0976802 0 3.7978519 1.70778787 3.7978519 3.81486493v70.37027017c0 2.107077-1.7001717 3.8148649-3.7978519 3.8148649z" stroke="#3098dc"/><path d="m104.729634 83h-103.45926769c-.70187739 0-1.27036631-.5497543-1.27036631-1.2285012v-4.5429976c0-.6787469.56848892-1.2285012 1.27036631-1.2285012h103.45926769c.701242 0 1.270366.5497543 1.270366 1.2285012v4.5429976c0 .6787469-.569124 1.2285012-1.270366 1.2285012" fill="#d9f0ff"/><path d="m104.729634 83h-103.45926769c-.70187739 0-1.27036631-.5497543-1.27036631-1.2285012v-4.5429976c0-.6787469.56848892-1.2285012 1.27036631-1.2285012h103.45926769c.701242 0 1.270366.5497543 1.270366 1.2285012v4.5429976c0 .6787469-.569124 1.2285012-1.270366 1.2285012z" stroke="#3098dc"/><path d="m10 71h86v-61h-86z" fill="#fefefe"/><g stroke="#3098dc"><path d="m10 71h86v-61h-86z"/><rect fill="#fff" height="53" rx="2" width="77" x="14.5" y="14.5"/><path d="m14.5 21.5h77v-5.5c0-.8284271-.6715729-1.5-1.5-1.5h-74c-.8284271 0-1.5.6715729-1.5 1.5z" fill="#fff"/><g fill="#d9f0ff"><circle cx="18" cy="18" r="1"/><circle cx="22.769231" cy="18" r="1"/><circle cx="27.538462" cy="18" r="1"/></g></g><g transform="translate(73)"><path d="m19.2986136 29.0578722h-4.6514679c-.0815554 0-.159736-.024129-.2266677-.0696452l-2.7526341-1.8710967-1.2103941-.9722904-6.71791208 1.8146129c-.20866924.0559355-.42802504-.0641613-.48876972-.2681613l-1.94776706-6.5685806c-.02249803-.075129-.02137312-.1535484.00281226-.228129l2.06925642-6.3261936-1.24189132-1.4312903c-.0719937-.0828065-.10574075-.1924839-.09224193-.3005161.01349882-.1080323.07255615-.206742.16311072-.2703549l.22216806-.1568387-.62038321-.5555161c-.08661742-.0784194-.13386328-.1886452-.12992613-.3032581.00449961-.1151613.06018224-.2220967.15186171-.2928387l.34984439-.2698064-.56976264-.4260968c-.09842889-.0734839-.15748622-.1913871-.15636132-.313129.0011249-.1222904.06074469-.2390968.16142337-.3120323l.41846338-.30435484-.99441297-4.68541935c-.01462372-.06690323-.01012412-.13819355.01293636-.20454839l1.51580486-4.47483871c.03430949-.10090322.10911545-.18425806.20641943-.22922581.09730399-.04551612.20979414-.05045161.31047283-.01370967l9.81589099 3.5996129h8.1487869l9.8153286-3.5996129c.1006787-.03729033.2137313-.03180645.3110353.01370967.0978664.04551613.1726723.12887097.2064194.22922581l1.5163673 4.47648387c.0219356.06361291.0264352.13380645.0123739.20180645l-.9837264 4.68816129.411714.30490323c.1001162.07403225.1574862.18754835.1580486.31038705.0005625.1211936-.0579324.238-.1557988.3120323l-.5703251.4266452.3492819.2698064c.0922419.0712903.1473621.1782258.1512993.2928387.0044996.1151613-.0427463.2253871-.1293637.3027097l-.6203832.5560645.2227305.1573871c.0899921.0630645.1490494.1617742.1625483.2703549.0134988.1080322-.0208107.2177096-.0928044.3005161l-1.2407664 1.4301935 2.0805054 6.3256452c.0247478.0734839.0258727.153.0039372.2286774l-1.9612659 6.5696774c-.0601822.2034516-.2801005.3224516-.4882073.2676129l-6.7179121-1.8146129-1.2469534.9986129-2.7160748 1.8447742c-.0669316.0455162-.1456747.0696452-.2266677.0696452z" fill="#fff" stroke="#3098dc"/><g fill="#3098dc"><path d="m18.0235556 24.6774194h-2.3667928l-.4105891.3175161-.1563613 1.913871h3.5006936l-.1569237-1.913871z"/><path d="m20.5891522 17.1247473-.9786643 2.0992258c-.0793056.17.0781806.3537097.25704.2999677l3.3370205-1.0013548c.1901083-.0570323.2092317-.3213548.028685-.4047097l-2.3583562-1.0978709c-.1074281-.0499033-.2351044-.0032904-.285725.1047419"/><path d="m13.0701367 17.0200164-2.3549814 1.0973226c-.1799843.0839032-.1614234.3476774.0292474.4052581l3.3364581 1.0013548c.1788593.0537419.3363455-.1305161.25704-.3005161l-.9820391-2.0992258c-.0506206-.1074839-.1782969-.1540968-.285725-.1041936"/></g></g><text fill="#3098dc" font-family="RobotoMono-Bold, Roboto Mono" font-size="10" font-weight="bold"><tspan x="24.495117" y="43">LOGIN WITH </tspan><tspan x="30.496094" y="56">METAMASK</tspan></text></g></svg>

<?xml version="1.0" encoding="UTF-8"?>
<svg width="108px" height="85px" viewBox="0 0 108 85" version="1.1" xmlns="http://www.w3.org/2000/svg" xmlns:xlink="http://www.w3.org/1999/xlink">
    <!-- Generator: sketchtool 50.2 (55047) - http://www.bohemiancoding.com/sketch -->
    <title>CEB55C41-7BCE-405E-83CD-834B388B495F</title>
    <desc>Created with sketchtool.</desc>
    <defs></defs>
    <g id="Import-account" stroke="none" stroke-width="1" fill="none" fill-rule="evenodd">
        <g id="hardware-connect" transform="translate(-457.000000, -1057.000000)">
            <g id="Group-11" transform="translate(356.000000, 929.000000)">
                <g id="use-dapps" transform="translate(102.000000, 129.000000)">
                    <g id="Group-3">
                        <path d="M96.2021481,83 L9.79785192,83 C7.70080469,83 6,81.2922121 6,79.1851351 L6,8.81486493 C6,6.70778787 7.70080469,5 9.79785192,5 L96.2021481,5 C98.2998283,5 100,6.70778787 100,8.81486493 L100,79.1851351 C100,81.2922121 98.2998283,83 96.2021481,83" id="Fill-12" fill="#FEFEFE"></path>
                        <path d="M96.2021481,83 L9.79785192,83 C7.70080469,83 6,81.2922121 6,79.1851351 L6,8.81486493 C6,6.70778787 7.70080469,5 9.79785192,5 L96.2021481,5 C98.2998283,5 100,6.70778787 100,8.81486493 L100,79.1851351 C100,81.2922121 98.2998283,83 96.2021481,83 Z" id="Stroke-13" stroke="#3098DC"></path>
                        <path d="M104.729634,83 L1.27036631,83 C0.568488923,83 0,82.4502457 0,81.7714988 L0,77.2285012 C0,76.5497543 0.568488923,76 1.27036631,76 L104.729634,76 C105.430876,76 106,76.5497543 106,77.2285012 L106,81.7714988 C106,82.4502457 105.430876,83 104.729634,83" id="Fill-14" fill="#D9F0FF"></path>
                        <path d="M104.729634,83 L1.27036631,83 C0.568488923,83 0,82.4502457 0,81.7714988 L0,77.2285012 C0,76.5497543 0.568488923,76 1.27036631,76 L104.729634,76 C105.430876,76 106,76.5497543 106,77.2285012 L106,81.7714988 C106,82.4502457 105.430876,83 104.729634,83 Z" id="Stroke-15" stroke="#3098DC"></path>
                        <polygon id="Fill-16" fill="#FEFEFE" points="10 71 96 71 96 10 10 10"></polygon>
                        <polygon id="Stroke-17" stroke="#3098DC" points="10 71 96 71 96 10 10 10"></polygon>
                        <rect id="Rectangle-2" stroke="#3098DC" fill="#FFFFFF" x="14.5" y="14.5" width="77" height="53" rx="2"></rect>
                        <path d="M14.5,21.5 L91.5,21.5 L91.5,16 C91.5,15.1715729 90.8284271,14.5 90,14.5 L16,14.5 C15.1715729,14.5 14.5,15.1715729 14.5,16 L14.5,21.5 Z" id="Rectangle-3" stroke="#3098DC" fill="#FFFFFF"></path>
                        <g id="Group-6" transform="translate(17.000000, 17.000000)" fill="#D9F0FF" stroke="#3098DC">
                            <circle id="Oval-2" cx="1" cy="1" r="1"></circle>
                            <circle id="Oval-2" cx="5.76923077" cy="1" r="1"></circle>
                            <circle id="Oval-2" cx="10.5384615" cy="1" r="1"></circle>
                        </g>
                        <g id="metamask-outline" transform="translate(73.000000, 0.000000)">
                            <g id="Group-6">
                                <path d="M19.2986136,29.0578722 L14.6471457,29.0578722 C14.5655903,29.0578722 14.4874097,29.0337432 14.420478,28.988227 L11.6678439,27.1171303 L10.4574498,26.1448399 L3.73953772,27.9594528 C3.53086848,28.0153883 3.31151268,27.8952915 3.250768,27.6912915 L1.30300094,21.1227109 C1.28050291,21.0475819 1.28162782,20.9691625 1.3058132,20.8945819 L3.37506962,14.5683883 L2.1331783,13.137098 C2.0611846,13.0542915 2.02743755,12.9446141 2.04093637,12.8365819 C2.05443519,12.7285496 2.11349252,12.6298399 2.20404709,12.566227 L2.42621515,12.4093883 L1.80583194,11.8538722 C1.71921452,11.7754528 1.67196866,11.665227 1.67590581,11.5506141 C1.68040542,11.4354528 1.73608805,11.3285174 1.82776752,11.2577754 L2.17761191,10.987969 L1.60784927,10.5618722 C1.50942038,10.4883883 1.45036305,10.3704851 1.45148795,10.2487432 C1.45261285,10.1264528 1.51223264,10.0096464 1.61291132,9.9367109 L2.0313747,9.63235606 L1.03696173,4.94693671 C1.02233801,4.88003348 1.02683761,4.80874316 1.04989809,4.74238832 L2.56570295,0.267549611 C2.60001244,0.166646385 2.6748184,0.0832915464 2.77212238,0.0383238044 C2.86942637,-0.00719232461 2.98191652,-0.0121278085 3.08259521,0.024614127 L12.8984862,3.62422703 L21.0472731,3.62422703 L30.8626017,0.024614127 C30.9632804,-0.0126761956 31.076333,-0.00719232461 31.173637,0.0383238044 C31.2715034,0.0838399335 31.3463093,0.167194772 31.3800564,0.267549611 L32.8964237,4.74403348 C32.9183593,4.80764639 32.9228589,4.87783993 32.9087976,4.94583993 L31.9250712,9.63400122 L32.3367852,9.93890445 C32.4369014,10.0129367 32.4942714,10.1264528 32.4948338,10.2492915 C32.4953963,10.3704851 32.4369014,10.4872915 32.339035,10.5613238 L31.7687099,10.987969 L32.1179918,11.2577754 C32.2102337,11.3290657 32.2653539,11.4360012 32.2692911,11.5506141 C32.2737907,11.6657754 32.2265448,11.7760012 32.1399274,11.8533238 L31.5195442,12.4093883 L31.7422747,12.5667754 C31.8322668,12.6298399 31.8913241,12.7285496 31.904823,12.8371303 C31.9183218,12.9451625 31.8840123,13.0548399 31.8120186,13.1376464 L30.5712522,14.5678399 L32.6517576,20.8934851 C32.6765054,20.966969 32.6776303,21.0464851 32.6556948,21.1221625 L30.6944289,27.6918399 C30.6342467,27.8952915 30.4143284,28.0142915 30.2062216,27.9594528 L23.4883095,26.1448399 L22.2413561,27.1434528 L19.5252813,28.988227 C19.4583497,29.0337432 19.3796066,29.0578722 19.2986136,29.0578722 Z" id="Stroke-19" stroke="#3098DC" fill="#FFFFFF"></path>
                                <polygon id="Fill-20" fill="#3098DC" points="18.0235556 24.6774194 15.6567628 24.6774194 15.2461737 24.9949355 15.0898124 26.9088065 18.590506 26.9088065 18.4335823 24.9949355"></polygon>
                                <path d="M20.5891522,17.1247473 L19.6104879,19.2239731 C19.5311823,19.3939731 19.6886685,19.5776828 19.8675279,19.5239408 L23.2045484,18.522586 C23.3946567,18.4655537 23.4137801,18.2012312 23.2332334,18.1178763 L20.8748772,17.0200054 C20.7674491,16.9701021 20.6397728,17.016715 20.5891522,17.1247473" id="Fill-21" fill="#3098DC"></path>
                                <path d="M13.0701367,17.0200164 L10.7151553,18.117339 C10.535171,18.2012422 10.5537319,18.4650164 10.7444027,18.5225971 L14.0808608,19.5239519 C14.2597201,19.5776938 14.4172063,19.3934358 14.3379008,19.2234358 L13.3558617,17.12421 C13.3052411,17.0167261 13.1775648,16.9701132 13.0701367,17.0200164" id="Fill-22" fill="#3098DC"></path>
                            </g>
                        </g>
                    </g>
                    <text id="LOGIN-WITH-METAMASK" font-family="RobotoMono-Bold, Roboto Mono" font-size="10" font-weight="bold" fill="#3098DC">
                        <tspan x="24.4951172" y="43">LOGIN WITH </tspan>
                        <tspan x="30.4960938" y="56">METAMASK</tspan>
                    </text>
                </g>
            </g>
        </g>
    </g>
</svg>
